icons/term-exited-early.svg

<svg
  xmlns="http://www.w3.org/2000/svg"
  viewBox="0 0 500 500"
  width="500"
  height="500"
  fill="#ffffff"
>
  <rect x="153.6" y="94.7" width="179.7" height="19.86" rx="9.9" />
  <rect x="73" y="94.7" width="63.6" height="63.56" />
  <path d="M163.7 158.3h113.8a10.1 10.1 0 1 0 0-20.2H163.7a10.1 10.1 0 1 0 0 20.2z" />
  <path d="M333.3 225.9a9.9 9.9 0 0 0-9.9-10H163.5a10 10 0 0 0 0 19.9h159.9a9.9 9.9 0 0 0 9.9-9.9z" />
  <rect x="73" y="215.9" width="63.6" height="63.56" />
  <path d="M287.6 269.4a10.1 10.1 0 0 0-10.1-10.1H163.7a10.1 10.1 0 0 0 0 20.2h113.8a10.1 10.1 0 0 0 10.1-10.1z" />
  <rect x="73" y="337.1" width="63.6" height="63.56" />
  <path d="M163.2 380.5a9.6 9.6 0 0 0-9.6 9.6v.9a9.6 9.6 0 0 0 9.6 9.7h82.4c0-1.4-.1-2.7-.1-4.1a122 122 0 0 1 1.2-16.1z" />
  <path d="M262.3 337.1h-98.8a10 10 0 0 0 0 19.9h89.1a118.2 118.2 0 0 1 9.7-19.9z" />
  <path d="M76.7 441.3A20.7 20.7 0 0 1 56 420.6V80.4a20.7 20.7 0 0 1 20.7-20.7h253a20.7 20.7 0 0 1 20.7 20.7v202.8a87.7 87.7 0 0 1 9-.4c3.4 0 6.7.2 10.1.4V80.4a39.9 39.9 0 0 0-39.8-39.8h-83.4a40.2 40.2 0 0 0-79.8 0H76.7a39.8 39.8 0 0 0-39.8 39.8v340.2a39.8 39.8 0 0 0 39.8 39.8h188.4a107.1 107.1 0 0 1-10.4-19.1zM206.4 23.2a22 22 0 0 1 20 12.9h-39.9a21.9 21.9 0 0 1 19.9-12.9z" />
  <path d="M362.8 294.4a100.3 100.3 0 1 0 100.3 100.3 100.2 100.2 0 0 0-100.3-100.3zm-19.4 131v-19.9h-27.7v-21.6h27.7V364l29.6 30.7zm66.6 27.5h-45.8v-19.3l33.4-34.6v-7.8l-33.4-34.6v-20.1H410z" />
</svg>

<svg xmlns="http://www.w3.org/2000/svg" viewBox="0 0 500 500">
  <g id="term-exited-early">
    <rect id="top-line1" x="153.6" y="94.7" width="179.7" height="19.86" rx="9.9"/>
    <rect id="top-square" x="73" y="94.7" width="63.6" height="63.56"/>
    <path id="top-line2" d="M163.7,158.3H277.5a10.1,10.1,0,1,0,0-20.2H163.7a10.1,10.1,0,1,0,0,20.2Z"/>
    <path id="middle-line1" d="M333.3,225.9a9.9,9.9,0,0,0-9.9-10H163.5a10,10,0,0,0,0,19.9H323.4A9.9,9.9,0,0,0,333.3,225.9Z"/>
    <rect id="middle-square" x="73" y="215.9" width="63.6" height="63.56"/>
    <path id="middle-line2" d="M287.6,269.4a10.1,10.1,0,0,0-10.1-10.1H163.7a10.1,10.1,0,0,0,0,20.2H277.5A10.1,10.1,0,0,0,287.6,269.4Z"/>
    <rect id="bottom-square" x="73" y="337.1" width="63.6" height="63.56"/>
    <path id="bottom-line2" d="M163.2,380.5a9.6,9.6,0,0,0-9.6,9.6v.9a9.6,9.6,0,0,0,9.6,9.7h82.4c0-1.4-.1-2.7-.1-4.1a122,122,0,0,1,1.2-16.1Z"/>
    <path id="bottom-line1" d="M262.3,337.1H163.5a10,10,0,0,0,0,19.9h89.1A118.2,118.2,0,0,1,262.3,337.1Z"/>
    <path id="outline" d="M76.7,441.3A20.7,20.7,0,0,1,56,420.6V80.4A20.7,20.7,0,0,1,76.7,59.7h253a20.7,20.7,0,0,1,20.7,20.7V283.2a87.7,87.7,0,0,1,9-.4c3.4,0,6.7.2,10.1.4V80.4a39.9,39.9,0,0,0-39.8-39.8H246.3a40.2,40.2,0,0,0-79.8,0H76.7A39.8,39.8,0,0,0,36.9,80.4V420.6a39.8,39.8,0,0,0,39.8,39.8H265.1a107.1,107.1,0,0,1-10.4-19.1ZM206.4,23.2a22,22,0,0,1,20,12.9H186.5A21.9,21.9,0,0,1,206.4,23.2Z"/>
    <path id="exit" d="M362.8,294.4A100.3,100.3,0,1,0,463.1,394.7,100.2,100.2,0,0,0,362.8,294.4Zm-19.4,131V405.5H315.7V383.9h27.7V364L373,394.7ZM410,452.9H364.2V433.6L397.6,399v-7.8l-33.4-34.6V336.5H410Z"/>
  </g>
</svg>
